;FLAVOR:Marlin
;TIME:8538
;Filament used: 5.04381m
;Layer height: 0.2
;MINX:80.835
;MINY:90.8
;MINZ:0.2
;MAXX:154.165
;MAXY:173.53
;MAXZ:16.4
;Generated with Cura_SteamEngine 4.8.0
M140 S50
M105
M190 S50
M104 S200
M105
M109 S200
M82 ;absolute extrusion mode
; Ender 3 Custom Start G-code
G92 E0 ; Reset Extruder
G28 ; Home all axes
G1 Z2.0 F3000 ; Move Z Axis up little to prevent scratching of Heat Bed
G1 X0.1 Y20 Z0.3 F5000.0 ; Move to start position
G1 X0.1 Y200.0 Z0.3 F1500.0 E15 ; Draw the first line
G1 X0.4 Y200.0 Z0.3 F5000.0 ; Move to side a little
G1 X0.4 Y20 Z0.3 F1500.0 E30 ; Draw the second line
G92 E0 ; Reset Extruder
G1 Z2.0 F3000 ; Move Z Axis up little to prevent scratching of Heat Bed
G1 X5 Y20 Z0.3 F5000.0 ; Move over to prevent blob squish
G92 E0
G92 E0
G1 F2700 E-5
;LAYER_COUNT:82
;LAYER:0
M107
;MESH:spacer v2.stl(3)
G0 F6000 X88.029 Y97.4 Z0.2
;TYPE:WALL-INNER
G1 F2700 E0
G1 F1200 X88.13 Y97.364 E0.00357
G1 X88.41 Y97.264 E0.01346
G1 X88.679 Y97.109 E0.02378
G1 X88.761 Y97.062 E0.02692
G1 X88.906 Y96.939 E0.03325
G1 X89.07 Y96.799 E0.04042
G1 X89.119 Y96.739 E0.043
G1 X89.325 Y96.485 E0.05387
G1 X89.461 Y96.236 E0.06331
G1 X89.519 Y96.13 E0.06733
G1 X89.569 Y95.978 E0.07265
G1 X89.647 Y95.745 E0.08082
G1 X89.654 Y95.689 E0.0827
G1 X89.696 Y95.385 E0.09291
G1 X89.702 Y95.343 E0.09432
G1 X89.691 Y95.084 E0.10294
G1 X89.684 Y94.939 E0.10777
G1 X89.655 Y94.812 E0.1121
G1 X89.592 Y94.544 E0.12126
G1 X89.582 Y94.521 E0.12209
G1 X89.457 Y94.233 E0.13254
G1 X89.43 Y94.172 E0.13475
G1 X89.306 Y93.987 E0.14216
G1 X89.205 Y93.837 E0.14818
G1 X89.129 Y93.76 E0.15178
G1 X88.921 Y93.546 E0.1617
G1 X88.666 Y93.367 E0.17206
G1 X88.589 Y93.313 E0.17519
G1 X88.413 Y93.232 E0.18164
G1 X88.222 Y93.144 E0.18863
G1 X88.146 Y93.125 E0.19124
G1 X87.831 Y93.043 E0.20206
G1 X87.548 Y93.024 E0.2115
G1 X87.428 Y93.015 E0.2155
G1 X87.251 Y93.035 E0.22142
G1 X87.024 Y93.061 E0.22902
G1 X86.974 Y93.076 E0.23076
G1 X86.67 Y93.168 E0.24132
G1 X86.635 Y93.179 E0.24254
G1 X86.41 Y93.296 E0.25098
G1 X86.275 Y93.366 E0.25603
G1 X86.158 Y93.458 E0.26099
G1 X85.957 Y93.615 E0.26947
G1 X85.939 Y93.635 E0.27036
G1 X85.726 Y93.873 E0.28099
G1 X85.687 Y93.916 E0.28292
G1 X85.569 Y94.11 E0.29047
G1 X85.476 Y94.264 E0.29645
G1 X85.436 Y94.368 E0.30016
G1 X85.332 Y94.641 E0.30988
G1 X85.274 Y94.953 E0.32043
G1 X85.26 Y95.027 E0.32294
G1 X85.252 Y95.248 E0.33029
G1 X85.251 Y95.262 E0.33076
G1 X85.277 Y95.546 E0.34024
G1 X85.287 Y95.644 E0.34352
G1 X85.336 Y95.825 E0.34976
G1 X85.394 Y96.034 E0.35697
G1 X85.428 Y96.103 E0.35953
G1 X85.573 Y96.399 E0.37049
G1 X85.735 Y96.618 E0.37955
G1 X85.814 Y96.725 E0.38398
G1 X85.928 Y96.832 E0.38918
G1 X86.111 Y97.003 E0.39751
G1 X86.143 Y97.023 E0.39876
G1 X86.423 Y97.201 E0.4098
G1 X86.453 Y97.22 E0.41098
G1 X86.685 Y97.314 E0.4193
G1 X86.826 Y97.372 E0.42437
G1 X86.957 Y97.399 E0.42882
G1 X87.223 Y97.456 E0.43787
G1 X87.563 Y97.462 E0.44918
G1 X87.63 Y97.464 E0.45141
G1 X87.843 Y97.43 E0.45858
G1 X88.029 Y97.4 E0.46485
G0 F6000 X87.929 Y97.011
;TYPE:WALL-OUTER
G1 F1200 X88.242 Y96.899 E0.47591
G1 X88.53 Y96.734 E0.48695
G1 X88.783 Y96.518 E0.49801
G1 X88.992 Y96.261 E0.50903
G1 X89.151 Y95.97 E0.52006
G1 X89.256 Y95.654 E0.53113
G1 X89.301 Y95.325 E0.54218
G1 X89.286 Y94.994 E0.5532
G1 X89.211 Y94.67 E0.56426
G1 X89.078 Y94.365 E0.57533
G1 X88.893 Y94.09 E0.58635
G1 X88.661 Y93.852 E0.5974
G1 X88.389 Y93.661 E0.60846
G1 X88.088 Y93.522 E0.61949
G1 X87.767 Y93.44 E0.63051
G1 X87.436 Y93.417 E0.64154
G1 X87.105 Y93.454 E0.65262
G1 X86.787 Y93.551 E0.66368
G1 X86.492 Y93.704 E0.67473
G1 X86.231 Y93.908 E0.68575
G1 X86.01 Y94.155 E0.69677
G1 X85.837 Y94.44 E0.70786
G1 X85.719 Y94.75 E0.71889
G1 X85.659 Y95.072 E0.72979
G1 X85.652 Y95.251 E0.73574
G1 X85.682 Y95.572 E0.74647
G1 X85.77 Y95.892 E0.75751
G1 X85.916 Y96.19 E0.76854
G1 X86.114 Y96.458 E0.77963
G1 X86.357 Y96.685 E0.79069
G1 X86.637 Y96.863 E0.80172
G1 X86.944 Y96.988 E0.81275
G1 X87.269 Y97.057 E0.8238
G1 X87.602 Y97.063 E0.83487
G1 X87.929 Y97.011 E0.84589
G0 F6000 X88.038 Y97.437
G0 X87.872 Y97.608
;TYPE:WALL-INNER
G1 F1200 X87.647 Y97.63 E0.84925
G1 X87.56 Y97.639 E0.85012
G1 X87.23 Y97.628 E0.85495
G1 X87.195 Y97.622
G1 X86.92 Y97.575 E0.85904
G1 X86.778 Y97.532 E0.86132
G1 X86.617 Y97.482 E0.86392
G1 X86.383 Y97.374 E0.86774
G1 X86.33 Y97.349
G1 X86.051 Y97.17 E0.87255
G1 X86.004 Y97.131 E0.87255
G1 X85.806 Y96.964 E0.87636
G1 X85.691 Y96.836 E0.87898
G1 X85.591 Y96.725 E0.88127
G1 X85.434 Y96.495 E0.88535
G1 X85.414 Y96.467
G1 X85.27 Y96.181 E0.88991
G1 X85.238 Y96.089 E0.89149
G1 X85.162 Y95.873 E0.89489
G1 X85.123 Y95.678 E0.89786
G1 X85.099 Y95.563 E0.89959
G1 X85.081 Y95.273 E0.90385
G1 X85.079 Y95.242
G1 X85.093 Y95.017 E0.90708
G1 X85.099 Y94.921 E0.90812
G1 X85.163 Y94.61 E0.91276
G1 X85.171 Y94.586
G1 X85.269 Y94.305 E0.91712
G1 X85.327 Y94.19 E0.91913
G1 X85.414 Y94.017 E0.92204
G1 X85.548 Y93.821 E0.92558
G1 X85.594 Y93.755 E0.92617
G1 X85.809 Y93.519 E0.93086
G1 X85.847 Y93.487 E0.93178
G1 X86.047 Y93.317 E0.93564
G1 X86.186 Y93.228 E0.93816
G1 X86.327 Y93.138 E0.94069
G1 X86.565 Y93.028 E0.94454
G1 X86.619 Y93.003
G1 X86.923 Y92.908 E0.94914
G1 X86.995 Y92.896 E0.95038
G1 X87.23 Y92.856 E0.95392
G1 X87.422 Y92.85 E0.95682
G1 X87.56 Y92.845 E0.95897
G1 X87.847 Y92.873 E0.96321
G1 X87.872 Y92.876
G1 X88.19 Y92.953 E0.96798
G1 X88.281 Y92.988 E0.96955
G1 X88.488 Y93.067 E0.97286
G1 X88.669 Y93.165 E0.97596
G1 X88.769 Y93.22 E0.97763
G1 X89.023 Y93.408 E0.98228
G1 X89.039 Y93.423
G1 X89.257 Y93.634 E0.98674
G1 X89.335 Y93.734 E0.98873
G1 X89.455 Y93.886 E0.99163
G1 X89.574 Y94.086 E0.99508
G1 X89.619 Y94.162 E0.99592
G1 X89.742 Y94.451 E1.00052
G1 X89.755 Y94.499 E1.00146
G1 X89.829 Y94.771 E1.00558
G1 X89.848 Y94.916 E1.00782
G1 X89.87 Y95.076 E1.01029
G1 X89.87 Y95.343 E1.01423
G1 X89.87 Y95.408 E1.01433
G1 X89.829 Y95.712 E1.01881
G1 X89.808 Y95.788 E1.02015
G1 X89.741 Y96.034 E1.0239
G1 X89.673 Y96.195 E1.02656
G1 X89.619 Y96.322 E1.02872
G1 X89.471 Y96.571 E1.03297
G1 X89.455 Y96.598
G1 X89.257 Y96.85 E1.03756
G1 X89.186 Y96.918 E1.03917
G1 X89.023 Y97.076 E1.04256
G1 X88.861 Y97.196 E1.04558
G1 X88.769 Y97.264 E1.04725
G1 X88.488 Y97.417 E1.05199
G1 X88.472 Y97.423
G1 X88.19 Y97.531 E1.05638
G1 X88.068 Y97.56 E1.05834
G1 X87.872 Y97.608 E1.06135
G0 F6000 X87.94 Y98.003
;TYPE:WALL-OUTER
G1 F1200 X87.571 Y98.04 E1.07369
G1 X87.194 Y98.027 E1.08624
G1 X86.829 Y97.965 E1.09855
G1 X86.467 Y97.854 E1.11114
G1 X86.138 Y97.701 E1.12321
G1 X85.813 Y97.493 E1.13604
G1 X85.528 Y97.253 E1.14844
G1 X85.281 Y96.979 E1.16071
G1 X85.069 Y96.671 E1.17314
G1 X84.899 Y96.334 E1.1857
G1 X84.776 Y95.981 E1.19813
G1 X84.702 Y95.618 E1.21045
G1 X84.678 Y95.242 E1.22298
G1 X84.702 Y94.866 E1.23551
G1 X84.776 Y94.504 E1.2478
G1 X84.899 Y94.15 E1.26027
G1 X85.069 Y93.813 E1.27282
G1 X85.281 Y93.505 E1.28526
G1 X85.528 Y93.233 E1.29748
G1 X85.814 Y92.991 E1.30994
G1 X86.132 Y92.787 E1.3225
G1 X86.474 Y92.629 E1.33504
G1 X86.829 Y92.519 E1.3474
G1 X87.194 Y92.457 E1.35971
G1 X87.571 Y92.444 E1.37226
G1 X87.94 Y92.481 E1.38459
G1 X88.306 Y92.569 E1.39711
G1 X88.654 Y92.703 E1.40951
G1 X88.985 Y92.883 E1.42205
G1 X89.285 Y93.104 E1.43444
G1 X89.554 Y93.365 E1.44691
G1 X89.785 Y93.658 E1.45932
G1 X89.976 Y93.98 E1.47177
G1 X90.121 Y94.322 E1.48412
G1 X90.221 Y94.688 E1.49674
G1 X90.27 Y95.053 E1.50899
G1 X90.27 Y95.431 E1.52156
G1 X90.221 Y95.797 E1.53384
G1 X90.121 Y96.162 E1.54643
G1 X89.976 Y96.504 E1.55879
G1 X89.785 Y96.826 E1.57124
G1 X89.554 Y97.119 E1.58365
G1 X89.285 Y97.38 E1.59612
G1 X88.985 Y97.601 E1.60851
G1 X88.654 Y97.781 E1.62104
G1 X88.306 Y97.915 E1.63344
G1 X87.94 Y98.003 E1.64596
G0 F6000 X87.867 Y97.57
G0 X87.886 Y97.626
G1 F2700 E-3.35404
;MESH:spacer v2.stl(2)
G0 F6000 X88.561 Y97.581
G0 X89.449 Y98.332
G0 X91.621 Y97.169
G0 X92.587 Y96.681
G0 X94.21 Y97.352
G0 X95.366 Y97.534
;TYPE:WALL-INNER
G1 F2700 E1.64596
G1 F1200 X95.468 Y97.498 E1.64956
G1 X95.747 Y97.398 E1.65942
G1 X96.012 Y97.246 E1.66958
G1 X96.098 Y97.196 E1.67289
G1 X96.245 Y97.071 E1.67931
G1 X96.406 Y96.933 E1.68636
G1 X96.456 Y96.872 E1.68898
G1 X96.662 Y96.619 E1.69983
G1 X96.796 Y96.374 E1.70912
G1 X96.857 Y96.263 E1.71333
G1 X96.906 Y96.113 E1.71858
G1 X96.983 Y95.879 E1.72678
G1 X96.99 Y95.824 E1.72862
G1 X97.033 Y95.515 E1.739
G1 X97.039 Y95.477 E1.74028
G1 X97.027 Y95.222 E1.74877
G1 X97.02 Y95.073 E1.75373
G1 X96.991 Y94.945 E1.75809
G1 X96.93 Y94.678 E1.7672
G1 X96.919 Y94.653 E1.76811
G1 X96.792 Y94.363 E1.77864
G1 X96.767 Y94.306 E1.78071
G1 X96.645 Y94.124 E1.788
G1 X96.541 Y93.97 E1.79418
G1 X96.466 Y93.894 E1.79773
G1 X96.257 Y93.68 E1.80768
G1 X96 Y93.498 E1.81815
G1 X95.927 Y93.447 E1.82112
G1 X95.747 Y93.364 E1.82771
G1 X95.559 Y93.277 E1.8346
G1 X95.485 Y93.259 E1.83713
G1 X95.167 Y93.178 E1.84805
G1 X94.884 Y93.157 E1.85748
G1 X94.764 Y93.148 E1.86149
G1 X94.588 Y93.168 E1.86738
G1 X94.36 Y93.195 E1.87501
G1 X94.309 Y93.21 E1.87678
G1 X94.005 Y93.303 E1.88736
G1 X93.972 Y93.313 E1.8885
G1 X93.752 Y93.428 E1.89676
G1 X93.614 Y93.5 E1.90194
G1 X93.494 Y93.592 E1.90697
G1 X93.293 Y93.747 E1.91541
G1 X93.275 Y93.767 E1.9163
G1 X93.063 Y94.006 E1.92693
G1 X93.023 Y94.051 E1.92893
G1 X92.904 Y94.247 E1.93656
G1 X92.813 Y94.397 E1.94239
G1 X92.773 Y94.504 E1.94619
G1 X92.669 Y94.775 E1.95585
G1 X92.612 Y95.088 E1.96643
G1 X92.598 Y95.159 E1.96884
G1 X92.588 Y95.384 E1.97633
G1 X92.587 Y95.395 E1.97669
G1 X92.613 Y95.679 E1.98618
G1 X92.623 Y95.78 E1.98955
G1 X92.675 Y95.966 E1.99598
G1 X92.732 Y96.17 E2.00302
G1 X92.763 Y96.234 E2.00539
G1 X92.904 Y96.522 E2.01605
G1 X92.91 Y96.533 E2.01647
G1 X93.072 Y96.752 E2.02553
G1 X93.151 Y96.859 E2.02995
G1 X93.265 Y96.966 E2.03515
G1 X93.448 Y97.137 E2.04348
G1 X93.48 Y97.157 E2.04474
G1 X93.76 Y97.335 E2.05578
G1 X93.79 Y97.354 E2.05696
G1 X94.022 Y97.448 E2.06528
G1 X94.162 Y97.506 E2.07032
G1 X94.293 Y97.533 E2.07477
G1 X94.561 Y97.59 E2.08388
G1 X94.9 Y97.596 E2.09516
G1 X94.966 Y97.598 E2.09736
G1 X95.179 Y97.564 E2.10453
G1 X95.366 Y97.534 E2.11083
G0 F6000 X95.266 Y97.145
;TYPE:WALL-OUTER
G1 F1200 X95.579 Y97.033 E2.12189
G1 X95.866 Y96.868 E2.1329
G1 X96.119 Y96.652 E2.14396
G1 X96.329 Y96.395 E2.155
G1 X96.488 Y96.103 E2.16606
G1 X96.592 Y95.788 E2.17709
G1 X96.638 Y95.459 E2.18814
G1 X96.622 Y95.128 E2.19916
G1 X96.548 Y94.804 E2.21022
G1 X96.415 Y94.499 E2.22128
G1 X96.23 Y94.224 E2.23231
G1 X95.997 Y93.986 E2.24339
G1 X95.726 Y93.795 E2.25441
G1 X95.425 Y93.656 E2.26544
G1 X95.103 Y93.574 E2.27649
G1 X94.772 Y93.55 E2.28753
G1 X94.442 Y93.588 E2.29858
G1 X94.124 Y93.685 E2.30964
G1 X93.83 Y93.838 E2.32066
G1 X93.567 Y94.041 E2.33171
G1 X93.346 Y94.29 E2.34278
G1 X93.174 Y94.573 E2.3538
G1 X93.056 Y94.884 E2.36486
G1 X92.996 Y95.205 E2.37572
G1 X92.988 Y95.385 E2.38171
G1 X93.018 Y95.707 E2.39247
G1 X93.107 Y96.027 E2.40352
G1 X93.253 Y96.324 E2.41453
G1 X93.451 Y96.592 E2.42561
G1 X93.694 Y96.819 E2.43667
G1 X93.974 Y96.997 E2.4477
G1 X94.28 Y97.122 E2.4587
G1 X94.606 Y97.191 E2.46978
G1 X94.938 Y97.197 E2.48082
G1 X95.266 Y97.145 E2.49187
G0 F6000 X95.375 Y97.571
G0 X95.208 Y97.742
;TYPE:WALL-INNER
G1 F1200 X94.983 Y97.764 E2.49523
G1 X94.897 Y97.773 E2.49607
G1 X94.567 Y97.762 E2.5009
G1 X94.533 Y97.757
G1 X94.257 Y97.709 E2.50502
G1 X94.114 Y97.665 E2.50732
G1 X93.954 Y97.616 E2.50989
G1 X93.72 Y97.508 E2.51371
G1 X93.667 Y97.483
G1 X93.388 Y97.304 E2.51851
G1 X93.341 Y97.265 E2.51852
G1 X93.143 Y97.098 E2.52232
G1 X93.028 Y96.97 E2.52494
G1 X92.928 Y96.859 E2.52724
G1 X92.77 Y96.63 E2.53134
G1 X92.749 Y96.599
G1 X92.604 Y96.312 E2.53603
G1 X92.574 Y96.225 E2.53756
G1 X92.502 Y96.015 E2.54086
G1 X92.461 Y95.814 E2.54392
G1 X92.436 Y95.696 E2.54573
G1 X92.417 Y95.407 E2.54996
G1 X92.415 Y95.376
G1 X92.429 Y95.148 E2.55324
G1 X92.436 Y95.056 E2.55417
G1 X92.502 Y94.737 E2.55898
G1 X92.507 Y94.72
G1 X92.604 Y94.44 E2.56337
G1 X92.663 Y94.322 E2.56544
G1 X92.749 Y94.153 E2.56832
G1 X92.885 Y93.956 E2.57189
G1 X92.931 Y93.89 E2.57248
G1 X93.146 Y93.653 E2.57711
G1 X93.185 Y93.62 E2.57807
G1 X93.384 Y93.451 E2.58189
G1 X93.524 Y93.361 E2.58441
G1 X93.668 Y93.269 E2.587
G1 X93.901 Y93.161 E2.59078
G1 X93.954 Y93.136 E2.59098
G1 X94.257 Y93.043 E2.59556
G1 X94.331 Y93.031 E2.59682
G1 X94.567 Y92.99 E2.60036
G1 X94.758 Y92.984 E2.60323
G1 X94.897 Y92.979 E2.6054
G1 X95.183 Y93.007 E2.60961
G1 X95.208 Y93.01
G1 X95.528 Y93.087 E2.6144
G1 X95.618 Y93.121 E2.61551
G1 X95.822 Y93.2 E2.61877
G1 X96.006 Y93.3 E2.62189
G1 X96.102 Y93.352 E2.62339
G1 X96.362 Y93.545 E2.62817
G1 X96.375 Y93.557
G1 X96.593 Y93.769 E2.63263
G1 X96.67 Y93.867 E2.63457
G1 X96.794 Y94.023 E2.63757
G1 X96.911 Y94.22 E2.64098
G1 X96.954 Y94.292 E2.64167
G1 X97.077 Y94.583 E2.64625
G1 X97.09 Y94.634 E2.64723
G1 X97.165 Y94.905 E2.65133
G1 X97.184 Y95.05 E2.65356
G1 X97.207 Y95.213 E2.65607
G1 X97.207 Y95.477 E2.65999
G1 X97.207 Y95.539 E2.66001
G1 X97.165 Y95.847 E2.66454
G1 X97.145 Y95.923 E2.66505
G1 X97.077 Y96.169 E2.66882
G1 X97.01 Y96.327 E2.6714
G1 X96.954 Y96.46 E2.67364
G1 X96.808 Y96.705 E2.67783
G1 X96.794 Y96.729
G1 X96.593 Y96.983 E2.68249
G1 X96.522 Y97.052 E2.68411
G1 X96.362 Y97.207 E2.6874
G1 X96.198 Y97.329 E2.69045
G1 X96.102 Y97.4 E2.69225
G1 X95.822 Y97.552 E2.697
G1 X95.809 Y97.557
G1 X95.528 Y97.665 E2.7014
G1 X95.405 Y97.694 E2.70337
G1 X95.208 Y97.742 E2.7064
G0 F6000 X95.276 Y98.137
;TYPE:WALL-OUTER
G1 F1200 X94.908 Y98.174 E2.7187
G1 X94.531 Y98.161 E2.73125
G1 X94.166 Y98.099 E2.74356
G1 X93.804 Y97.988 E2.75615
G1 X93.475 Y97.835 E2.76822
G1 X93.15 Y97.627 E2.78106
G1 X92.865 Y97.387 E2.79345
G1 X92.618 Y97.113 E2.80572
G1 X92.402 Y96.8 E2.81837
G1 X92.236 Y96.472 E2.83059
G1 X92.114 Y96.117 E2.84308
G1 X92.039 Y95.752 E2.85547
G1 X92.014 Y95.376 E2.86801
G1 X92.039 Y95 E2.88054
G1 X92.114 Y94.635 E2.89293
G1 X92.236 Y94.28 E2.90542
G1 X92.402 Y93.952 E2.91764
G1 X92.618 Y93.639 E2.93029
G1 X92.865 Y93.367 E2.94251
G1 X93.151 Y93.125 E2.95497
G1 X93.475 Y92.917 E2.96778
G1 X93.804 Y92.764 E2.97985
G1 X94.166 Y92.653 E2.99244
G1 X94.531 Y92.591 E3.00476
G1 X94.908 Y92.578 E3.0173
G1 X95.276 Y92.615 E3.0296
G1 X95.642 Y92.703 E3.04212
G1 X95.991 Y92.837 E3.05456
G1 X96.322 Y93.017 E3.06709
G1 X96.621 Y93.238 E3.07946
G1 X96.89 Y93.499 E3.09192
G1 X97.122 Y93.792 E3.10435
G1 X97.312 Y94.114 E3.11679
G1 X97.457 Y94.456 E3.12914
G1 X97.557 Y94.82 E3.1417
G1 X97.607 Y95.188 E3.15405
G1 X97.607 Y95.564 E3.16656
G1 X97.557 Y95.932 E3.17891
G1 X97.457 Y96.296 E3.19146
G1 X97.312 Y96.638 E3.20382
G1 X97.122 Y96.96 E3.21625
G1 X96.89 Y97.253 E3.22868
G1 X96.621 Y97.514 E3.24115
G1 X96.322 Y97.735 E3.25352
G1 X95.991 Y97.915 E3.26605
G1 X95.642 Y98.049 E3.27848
G1 X95.276 Y98.137 E3.291
G0 F6000 X95.203 Y97.704
G0 X95.221 Y97.76
G1 F2700 E-1.709
;MESH:spacer v2.stl(1)
G0 F6000 X96.206 Y97.549
G0 X97.18 Y98.175
G0 X99.901 Y98.179
G0 X100.705 Y97.453
G0 X103.053 Y97.758
;TYPE:WALL-INNER
G1 F2700 E3.291
G1 F1200 X103.149 Y97.724 E3.29439
G1 X103.433 Y97.622 E3.30443
G1 X103.694 Y97.472 E3.31444
G1 X103.784 Y97.42 E3.3179
G1 X103.93 Y97.296 E3.32427
G1 X104.093 Y97.157 E3.33139
G1 X104.142 Y97.096 E3.33399
G1 X104.343 Y96.851 E3.34453
G1 X104.35 Y96.843 E3.34489
G1 X104.484 Y96.595 E3.35426
G1 X104.542 Y96.487 E3.35834
G1 X104.593 Y96.332 E3.36377
G1 X104.67 Y96.103 E3.3718
G1 X104.677 Y96.047 E3.37368
G1 X104.719 Y95.743 E3.38389
G1 X104.725 Y95.701 E3.3853
G1 X104.714 Y95.442 E3.39392
G1 X104.707 Y95.297 E3.39875
G1 X104.678 Y95.171 E3.40305
G1 X104.615 Y94.902 E3.41224
G1 X104.606 Y94.881 E3.413
G1 X104.48 Y94.592 E3.42348
G1 X104.453 Y94.532 E3.42567
G1 X104.327 Y94.341 E3.43328
G1 X104.229 Y94.194 E3.43916
G1 X104.154 Y94.117 E3.44273
G1 X103.944 Y93.904 E3.45268
G1 X103.682 Y93.72 E3.46333
G1 X103.612 Y93.671 E3.46617
G1 X103.445 Y93.594 E3.47229
G1 X103.245 Y93.502 E3.47961
G1 X103.166 Y93.482 E3.48232
G1 X102.854 Y93.402 E3.49304
G1 X102.57 Y93.381 E3.50251
G1 X102.451 Y93.372 E3.50648
G1 X102.275 Y93.392 E3.51237
G1 X102.046 Y93.419 E3.52004
G1 X101.995 Y93.434 E3.52181
G1 X101.689 Y93.527 E3.53244
G1 X101.659 Y93.537 E3.53349
G1 X101.44 Y93.651 E3.54171
G1 X101.3 Y93.724 E3.54696
